X:1
T:Mein Augen Threnen
T:Antonio Brunelli
T:Source : Tricinia---Johann-Jacob Gastoldi und anderer Autorn---Nürnberg---P.Kauffmann---1607. Editor : André Vierendeels (19/03/17).
T:Notes : Originel clefs : G2, G2, F3 Editorial accidentals above the staff Text Middle German by Valentin Hauszmann Sub-heading : "Affettuoso Invaghito" 
T:Mein Augen Threnen
T:©
T:©
T:©
C:Antonio Brunelli
Z:©
%%score [ 1 2 3 ]
L:1/8
Q:1/4=99
M:4/4
K:C
V:1 treble nm="Soprano 1" snm="S 1"
V:2 treble nm="Soprano 2" snm="S 2"
V:3 treble-8 nm="Tenor" snm="T"
V:1
"^1)" z2 e2 g4 | g2 ^f4 g2 | feed edec | d8 | z2 g2 e2 g2- | g2 ee d4 | c8 :: a4 a2 a2 | %8
w: Mein Au-|gen Thre- nen|gies- * * * * * * *|sen,|die von mir|_ häu- ffig flies-|sen,|gleich wie ein|
w: Durch mein|kläg- li- ches|wei- * * * * * * *|nen,|welchs er- barmn|_ möcht den Stei-|nen,|kan ich Jung-|
 g3 f e2 c2 | de f4 e2 | f4 a2 f2 | g2 fe d2 cB | Aa^cd e4 | d4 d2 d2 | e4 ^f2 f2 | ggBc d3 c | %16
w: Re- gen der fällt|auff die Er- den,|al- so mein|Ba- cken _ beid _ _|_ be- net- zet wer-|den, al- so|mein Ba- cken|beid be- net- zet wer- *|
w: frau bey euch kein|huld er- lan- gen,|wetz hab ich|denn nur _ hie _ _|_ mich un- ter- fan-|gen, wetz hab|ich denn nur|hie mich un- ter fan- *|
 B2 e2 d4 | c8 :| %18
w: |den.|
w: |gen.|
V:2
"^2)""^1)" z2 c2 e4 | e2 d4 d2 | c8- | c4 B4 | z4 c2 G2 | B2 Bc c2 B2 | c8 :: c4 c2 f2 | %8
w: Mein Au-|gen Thre- nen|gies-|* sen,|die von|mir häu- ffig flies- *|sen,|gleich wie ein|
w: Seyt ihr|so hart von|Hert-|* zen,|dasz euch|nicht b'wegt mein schmer- *|zen,|den ihr mir|
 e3 d c2 c2 | _B2 c2 G4 | A8 | z4 g2 e2 | f2 ed ^c4 | z2 f4 f2 | g4 c2 c2 | B8 | z gBc B4 | c8 :| %18
w: Re- gen der fällt|auff die Er-|den,|al- so|mein Ba- cken beid,|al- si|mein Ba- chen|beid|be- net- zet wer-|den.|
w: habt al- lein ver-|ur- dacht e-|ben,|war- *|umb mögt ihr denn|auch nicht|hül- ffe ge-|ben,|nicht hül- ffe ge-|ben?|
V:3
"^3)""^1)""^4)" z2 c2 c4 | c2 d4 B2 | A8 | G8 | c2 G2 A2 EE | G8 | C8 :: F4 F2 F2 | G2 G2 A2 A2 | %9
w: Mein Au-|gen Thre- nen|gies-|sen,|die von mir häu- ffig|flies-|sen,|gleich wie ein|Re- gen der fällt|
w: O laszt|euch doch er-|bit-|ten,|durch euch tu- gend und|fit-|ten,|i- und hö-|red auff mich so|
 _B2 A2 c4 | F8 | c2 A2 _B2 AG | A8 | d8 | c4 A4 | G8- | G8 | C8 :| %18
w: auff die Er-|den,|al- so mein Ba- cken|beid|be-|net- zet|wer-||den.|
w: mit leid zu|krenck'n|ich will, was iht ge-|than,|nicht|mehr ge-|den-||cken|

